X: 180
T: No_3_Buffalo_Dance_Song_(c).krn
N: Derived from No_3_Buffalo_Dance_Song_(c).krn
%%abc-version 2.0
%%abcx-abcm2ps-target-version 5.9.1 (29 Sep 2008)
%%abc-creator hum2abc beta
%%abcx-conversion-date 2019/03/15 08:38:45
%%humdrum-veritas 3929304649
%%humdrum-veritas-data 3676094282
%%linebreak <none>
%%barnumbers 0
L: 1/8
M: 3/4
K: Eb clef=bass
[K:clef=bass][M:3/4]B,3/F,/ (3G,F,F, F, z ]|:  
B,3/F,/ G,/F,3/ (3F,E,E, | 
[M:2/4](3F,E,E, E, z | 
[M:3/4](3E,F,E, (3C,B,,B,, B,, z | 
[M:2/4]F,2F,/E,3/ | 
(3F,E,E, E, z | 
[M:3/4](3E,F,E, (3C,B,,B,,B,,2 :|]  
[M:2/4]B,4 | 
B,B, B,B, | 
[M:3/4](B,3F,) (B,F,)



